offer/images/www.svg

<svg height="51" viewBox="0 0 51 51" width="51" xmlns="http://www.w3.org/2000/svg"><g fill="none" fill-rule="evenodd"><path d="m48.0018574 33.8073223c-6.1560586 12.909375-15.6288105 15.6985371-22.5018574 15.6985371-7.739748 0-15.0311543-3.8648438-19.51357617-10.1701172-4.51210547-6.3650391-5.58808594-14.4333985-2.98828125-22.1432637l.47822461-.9860332c3.64560351-8.69599803 12.49101561-14.71230468 22.02363281-14.71230468 7.739748 0 15.0311543 3.86484375 19.5135762 10.17011718 4.5121054 6.3650391 5.5880859 14.4333984 2.9882812 22.1430645z" fill="#65b1fc"/><path d="m48.0018574 33.8073223c-6.1560586 12.909375-15.6288105 15.6985371-22.5018574 15.6985371v-48.01171878c7.739748 0 15.0311543 3.86484375 19.5135762 10.17011718 4.5121054 6.3650391 5.5880859 14.4333984 2.9882812 22.1430645z" fill="#1689fc"/><path d="m46.2386719 10.7975566c-4.7811504-6.69374996-12.5208985-10.7975566-20.7386719-10.7975566-10.2498047 0-19.63300781 6.43476562-23.48789063 15.9075176l-.50810742 1.045998c-2.74374023 8.354836-1.67542968 16.268502 3.25732617 23.2487285 4.7811504 6.69375 12.52089848 10.7977559 20.73867188 10.7977559 10.1302734 0 19.3939453-6.2853516 23.3683594-15.549123l.4481426-.8964844c2.9868867-8.4985723 1.9405898-16.6627559-3.0778301-23.756836zm-39.02695315 27.6714844c-4.24325977-5.9765625-5.22949219-13.5368144-2.77910156-20.7983379l.38847656-.8069355c2.42050781-5.7972656 7.23164065-10.28954885 12.96904105-12.44121096-3.6157207 4.72158399-5.7972657 13.90546876-5.5282207 16.89374996-.0298828.0897481-.0598653.1792969-.0598653.2989278-.7769531 10.0106426 1.4941407 19.6728515 5.7673828 25.0816406-4.2731425-1.5540059-8.06816012-4.4326172-10.75771285-8.227834zm16.79414065 9.2736328c-1.0457989-.3585937-2.0917969-1.1454082-3.0780293-2.1914062-4.1834942-4.5122051-6.4844707-14.0448223-5.7374004-23.6970703v-.2688457c0-.0897481.0298828-.2091797.0298828-.2989278.866502-9.2935547 4.5123047-16.62470505 8.7855469-18.02929685zm2.9882812-.0298828v-44.45566405c4.6018535 1.52402344 8.4569356 9.99082035 8.9049785 20.09121095.4183594 9.3234375-1.9124003 18.0791016-5.9466796 22.3225605-.95625.9860332-1.9421836 1.7131817-2.9582989 2.0418926zm19.5732422-14.3834941c-3.346875 7.0523437-8.0683594 11.3952129-13.5369141 13.3376953 4.0042969-5.0501953 6.2753907-14.0548828 5.8569317-23.438086-.3585938-7.9489277-2.5998047-14.80185347-5.8569317-18.9257812 4.2732422 1.55380664 8.0682598 4.43261719 10.7577129 8.2276348 4.2433594 5.9765625 5.2295918 13.5370136 2.7792012 20.7985371z" fill="#96ebe6" fill-rule="nonzero"/><path d="m46.2386719 10.7975566c-4.7811504-6.69374996-12.5208985-10.7975566-20.7386719-10.7975566v51c10.1302734 0 19.3939453-6.2853516 23.3683594-15.549123l.4481426-.8964844c2.9868867-8.4985723 1.9405898-16.6627559-3.0778301-23.756836zm-19.2445313 36.9152344v-44.45566405c4.6018535 1.52402344 8.4569356 9.99082035 8.9049785 20.09121095.4183594 9.3234375-1.9124003 18.0791016-5.9466796 22.3225605-.95625.9860332-1.9421836 1.7131817-2.9582989 2.0418926zm19.5732422-14.3834941c-3.346875 7.0523437-8.0683594 11.3952129-13.536914 13.3376953 4.0042968-5.0501953 6.2753906-14.0548828 5.8569316-23.438086-.3585938-7.9489277-2.5998047-14.80185347-5.8569316-18.9257812 4.2732421 1.55380664 8.0682597 4.43261719 10.7577128 8.2276348 4.2433594 5.9765625 5.2295918 13.5370136 2.7792012 20.7985371z" fill="#00c8c8" fill-rule="nonzero"/><path d="m46.4179688 15.0410156h-41.83593755c-2.48037305 0-4.58203125 2.0020489-4.58203125 4.4824219v11.953125c0 2.4801738 2.1016582 4.4824219 4.58203125 4.4824219h41.83593755c2.480373 0 4.5820312-2.0022481 4.5820312-4.4824219v-11.953125c0-2.480373-2.1016582-4.4824219-4.5820312-4.4824219z" fill="#0053bf"/><path d="m51 19.5234375v11.953125c0 2.4801738-2.1016582 4.4824219-4.5820312 4.4824219h-20.9179688v-20.9179688h20.9179688c2.480373 0 4.5820312 2.0020489 4.5820312 4.4824219z" fill="#05377f"/><path d="m32.8212891 23.169041-2.9882813 5.9765625c-.2689453.5081074-.7769531.8368184-1.3447265.8368184-.5677735 0-1.0757813-.328711-1.3447266-.8368184l-1.6435547-3.2870097-1.6435547 3.2870097c-.5079082 1.0161153-2.1815449 1.0161153-2.6895527 0l-2.9882813-5.9765625c-.3585937-.7171875-.059666-1.6135722.6874043-2.0020488.7171875-.3585938 1.6135723-.0598652 2.0020489.6872051l1.6436543 3.287209 1.6435546-3.287209c.269045-.5079082.8069356-.7769532 1.3447266-.7769532s1.0757813.269045 1.3447266.7769532l1.6435547 3.287209 1.6435546-3.287209c.3884766-.7470703 1.284961-1.0457989 2.0020489-.6872051.7470703.3884766 1.045998 1.2848613.6874043 2.0020488z" fill="#e1f1fa"/><path d="m43.4296875 29.9824219c-.5661797 0-1.0826543-.3195469-1.3365586-.8258614l-1.6517226-3.3034453-1.6517227 3.3034453c-.5078086 1.012629-2.1653086 1.012629-2.6731172 0l-2.8627734-5.727041c-.1852735-.2276074-.3050039-.5092031-.3254239-.8185898-.0524941-.8229727.5267344-1.5305977 1.3496075-1.5845859.6245507-.014543 1.2548789.2802011 1.5233261.8170957l1.6518223 3.3034453 1.6517227-3.3034453c.5078086-1.012629 2.1653086-1.012629 2.6731171 0l1.6517227 3.3034453 1.6517227-3.3034453c.3706464-.7397989 1.2679277-1.0330489 2.0048378-.6682793.7383047.3691523 1.0374317 1.2665332.6682793 2.0048378l-2.9882812 5.9765625c-.2539043.5063145-.7703789.8258614-1.3365586.8258614z" fill="#bfe1ff"/><path d="m16.6314785 21.0204668c-.5879941-.005877-1.164334.2859785-1.4328808.8229727l-1.6517227 3.3034453-1.6517227-3.3034453c-.5381894-1.0726934-2.14080464-1.064625-2.67311714 0l-1.65172266 3.3034453-1.65172266-3.3034453c-.37064648-.7397989-1.26942187-1.0330489-2.00483789-.6682793-.73830468.3691523-1.03743164 1.2665332-.66827929 2.0048378l2.98828125 5.9765625c.25390429.5063145.7703789.8258614 1.33655859.8258614s1.0826543-.3195469 1.33655859-.8258614l1.65172271-3.3034453 1.6517226 3.3034453c.2539043.5063145.7703789.8258614 1.3365586.8258614s1.0826543-.3195469 1.3365586-.8258614l2.8146621-5.6293242c.2130645-.24225.3502266-.5617968.3735352-.9163066.0524941-.8229727-.6171797-1.5364746-1.4401524-1.5904629z" fill="#e1f1fa"/><path d="m32.8212891 23.169041-2.9882813 5.9765625c-.2689453.5081074-.7769531.8368184-1.3447266.8368184-.5677734 0-1.0757812-.328711-1.3447265-.8368184l-1.6435547-3.2870097v-4.7813497c.5378906 0 1.0757813.269045 1.3447266.7769532l1.6435546 3.287209 1.6435547-3.287209c.3884766-.7470703 1.284961-1.0457989 2.0020489-.6872051.7470703.3884766 1.045998 1.2848613.6874043 2.0020488z" fill="#bfe1ff"/></g></svg>

<?xml version="1.0" encoding="UTF-8"?>
<svg width="51px" height="51px" viewBox="0 0 51 51" version="1.1" xmlns="http://www.w3.org/2000/svg" xmlns:xlink="http://www.w3.org/1999/xlink">
    <!-- Generator: Sketch 52.2 (67145) - http://www.bohemiancoding.com/sketch -->
    <title>world-wide-web</title>
    <desc>Created with Sketch.</desc>
    <g id="Page-1" stroke="none" stroke-width="1" fill="none" fill-rule="evenodd">
        <g id="offer" transform="translate(-497.000000, -8118.000000)">
            <g id="world-wide-web" transform="translate(497.000000, 8118.000000)">
                <path d="M48.0018574,33.8073223 C41.8457988,46.7166973 32.3730469,49.5058594 25.5,49.5058594 C17.760252,49.5058594 10.4688457,45.6410156 5.98642383,39.3357422 C1.47431836,32.9707031 0.398337891,24.9023437 2.99814258,17.1924785 L3.47636719,16.2064453 C7.1219707,7.51044727 15.9673828,1.49414062 25.5,1.49414062 C33.239748,1.49414062 40.5311543,5.35898437 45.0135762,11.6642578 C49.5256816,18.0292969 50.6016621,26.0976562 48.0018574,33.8073223 Z" id="Path" fill="#65B1FC"></path>
                <path d="M48.0018574,33.8073223 C41.8457988,46.7166973 32.3730469,49.5058594 25.5,49.5058594 L25.5,1.49414062 C33.239748,1.49414062 40.5311543,5.35898437 45.0135762,11.6642578 C49.5256816,18.0292969 50.6016621,26.0976562 48.0018574,33.8073223 Z" id="Path" fill="#1689FC"></path>
                <path d="M46.2386719,10.7975566 C41.4575215,4.10380664 33.7177734,0 25.5,0 C15.2501953,0 5.86699219,6.43476562 2.01210937,15.9075176 L1.50400195,16.9535156 C-1.23973828,25.3083516 -0.171427734,33.2220176 4.76132812,40.2022441 C9.54247852,46.8959941 17.2822266,51 25.5,51 C35.6302734,51 44.8939453,44.7146484 48.8683594,35.450877 L49.316502,34.5543926 C52.3033887,26.0558203 51.2570918,17.8916367 46.2386719,10.7975566 Z M7.21171875,38.469041 C2.96845898,32.4924785 1.98222656,24.9322266 4.43261719,17.6707031 L4.82109375,16.8637676 C7.24160156,11.066502 12.0527344,6.57421875 17.7901348,4.42255664 C14.1744141,9.14414063 11.9928691,18.3280254 12.2619141,21.3163066 C12.2320313,21.4060547 12.2020488,21.4956035 12.2020488,21.6152344 C11.4250957,31.625877 13.6961895,41.2880859 17.9694316,46.696875 C13.6962891,45.1428691 9.90127148,42.2642578 7.21171875,38.469041 Z M24.0058594,47.7426738 C22.9600605,47.3840801 21.9140625,46.5972656 20.9278301,45.5512676 C16.7443359,41.0390625 14.4433594,31.5064453 15.1904297,21.8541973 L15.1904297,21.5853516 C15.1904297,21.4956035 15.2203125,21.3761719 15.2203125,21.2864238 C16.0868145,11.9928691 19.7326172,4.66171875 24.0058594,3.25712695 L24.0058594,47.7426738 Z M26.9941406,47.712791 L26.9941406,3.25712695 C31.5959941,4.78115039 35.4510762,13.2479473 35.8991191,23.3483379 C36.3174785,32.6717754 33.9867188,41.4274395 29.9524395,45.6708984 C28.9961895,46.6569316 28.0102559,47.3840801 26.9941406,47.712791 Z M46.5673828,33.3292969 C43.2205078,40.3816406 38.4990234,44.7245098 33.0304687,46.6669922 C37.0347656,41.6167969 39.3058594,32.6121094 38.8874004,23.2289062 C38.5288066,15.2799785 36.2875957,8.42705273 33.0304687,4.303125 C37.3037109,5.85693164 41.0987285,8.73574219 43.7881816,12.5307598 C48.031541,18.5073223 49.0177734,26.0677734 46.5673828,33.3292969 Z" id="Shape" fill="#96EBE6" fill-rule="nonzero"></path>
                <path d="M46.2386719,10.7975566 C41.4575215,4.10380664 33.7177734,0 25.5,0 L25.5,51 C35.6302734,51 44.8939453,44.7146484 48.8683594,35.450877 L49.316502,34.5543926 C52.3033887,26.0558203 51.2570918,17.8916367 46.2386719,10.7975566 Z M26.9941406,47.712791 L26.9941406,3.25712695 C31.5959941,4.78115039 35.4510762,13.2479473 35.8991191,23.3483379 C36.3174785,32.6717754 33.9867188,41.4274395 29.9524395,45.6708984 C28.9961895,46.6569316 28.0102559,47.3840801 26.9941406,47.712791 Z M46.5673828,33.3292969 C43.2205078,40.3816406 38.4990234,44.7245098 33.0304688,46.6669922 C37.0347656,41.6167969 39.3058594,32.6121094 38.8874004,23.2289062 C38.5288066,15.2799785 36.2875957,8.42705273 33.0304688,4.303125 C37.3037109,5.85693164 41.0987285,8.73574219 43.7881816,12.5307598 C48.031541,18.5073223 49.0177734,26.0677734 46.5673828,33.3292969 Z" id="Shape" fill="#00C8C8" fill-rule="nonzero"></path>
                <path d="M46.4179688,15.0410156 L4.58203125,15.0410156 C2.1016582,15.0410156 0,17.0430645 0,19.5234375 L0,31.4765625 C0,33.9567363 2.1016582,35.9589844 4.58203125,35.9589844 L46.4179688,35.9589844 C48.8983418,35.9589844 51,33.9567363 51,31.4765625 L51,19.5234375 C51,17.0430645 48.8983418,15.0410156 46.4179688,15.0410156 Z" id="Path" fill="#0053BF"></path>
                <path d="M51,19.5234375 L51,31.4765625 C51,33.9567363 48.8983418,35.9589844 46.4179688,35.9589844 L25.5,35.9589844 L25.5,15.0410156 L46.4179688,15.0410156 C48.8983418,15.0410156 51,17.0430645 51,19.5234375 Z" id="Path" fill="#05377F"></path>
                <path d="M32.8212891,23.169041 L29.8330078,29.1456035 C29.5640625,29.6537109 29.0560547,29.9824219 28.4882813,29.9824219 C27.9205078,29.9824219 27.4125,29.6537109 27.1435547,29.1456035 L25.5,25.8585938 L23.8564453,29.1456035 C23.3485371,30.1617188 21.6749004,30.1617188 21.1668926,29.1456035 L18.1786113,23.169041 C17.8200176,22.4518535 18.1189453,21.5554688 18.8660156,21.1669922 C19.5832031,20.8083984 20.4795879,21.107127 20.8680645,21.8541973 L22.5117188,25.1414063 L24.1552734,21.8541973 C24.4243184,21.3462891 24.962209,21.0772441 25.5,21.0772441 C26.037791,21.0772441 26.5757813,21.3462891 26.8447266,21.8541973 L28.4882813,25.1414063 L30.1318359,21.8541973 C30.5203125,21.107127 31.4167969,20.8083984 32.1338848,21.1669922 C32.8809551,21.5554688 33.1798828,22.4518535 32.8212891,23.169041 Z" id="Path" fill="#E1F1FA"></path>
                <path d="M43.4296875,29.9824219 C42.8635078,29.9824219 42.3470332,29.662875 42.0931289,29.1565605 L40.4414063,25.8531152 L38.7896836,29.1565605 C38.281875,30.1691895 36.624375,30.1691895 36.1165664,29.1565605 L33.253793,23.4295195 C33.0685195,23.2019121 32.9487891,22.9203164 32.9283691,22.6109297 C32.875875,21.787957 33.4551035,21.080332 34.2779766,21.0263438 C34.9025273,21.0118008 35.5328555,21.3065449 35.8013027,21.8434395 L37.453125,25.1468848 L39.1048477,21.8434395 C39.6126563,20.8308105 41.2701563,20.8308105 41.7779648,21.8434395 L43.4296875,25.1468848 L45.0814102,21.8434395 C45.4520566,21.1036406 46.3493379,20.8103906 47.086248,21.1751602 C47.8245527,21.5443125 48.1236797,22.4416934 47.7545273,23.179998 L44.7662461,29.1565605 C44.5123418,29.662875 43.9958672,29.9824219 43.4296875,29.9824219 Z" id="Path" fill="#BFE1FF"></path>
                <path d="M16.6314785,21.0204668 C16.0434844,21.0145898 15.4671445,21.3064453 15.1985977,21.8434395 L13.546875,25.1468848 L11.8951523,21.8434395 C11.3569629,20.7707461 9.75434766,20.7788145 9.22203516,21.8434395 L7.5703125,25.1468848 L5.91858984,21.8434395 C5.54794336,21.1036406 4.64916797,20.8103906 3.91375195,21.1751602 C3.17544727,21.5443125 2.87632031,22.4416934 3.24547266,23.179998 L6.23375391,29.1565605 C6.4876582,29.662875 7.00413281,29.9824219 7.5703125,29.9824219 C8.13649219,29.9824219 8.6529668,29.662875 8.90687109,29.1565605 L10.5585938,25.8531152 L12.2103164,29.1565605 C12.4642207,29.662875 12.9806953,29.9824219 13.546875,29.9824219 C14.1130547,29.9824219 14.6295293,29.662875 14.8834336,29.1565605 L17.6980957,23.5272363 C17.9111602,23.2849863 18.0483223,22.9654395 18.0716309,22.6109297 C18.124125,21.787957 17.4544512,21.0744551 16.6314785,21.0204668 Z" id="Path" fill="#E1F1FA"></path>
                <path d="M32.8212891,23.169041 L29.8330078,29.1456035 C29.5640625,29.6537109 29.0560547,29.9824219 28.4882812,29.9824219 C27.9205078,29.9824219 27.4125,29.6537109 27.1435547,29.1456035 L25.5,25.8585938 L25.5,21.0772441 C26.0378906,21.0772441 26.5757813,21.3462891 26.8447266,21.8541973 L28.4882812,25.1414063 L30.1318359,21.8541973 C30.5203125,21.107127 31.4167969,20.8083984 32.1338848,21.1669922 C32.8809551,21.5554688 33.1798828,22.4518535 32.8212891,23.169041 Z" id="Path" fill="#BFE1FF"></path>
            </g>
        </g>
    </g>
</svg>
